X:1
T:James Gibb editions
T:Psalm 95 (Becker) - Schütz
%%score [ ( 1 2 ) ( 3 4 ) ]
L:1/8
Q:1/4=98
M:2/2
K:D
V:1 treble nm="Soprano Alto"
V:2 treble 
V:3 bass nm="Tenor Bass"
V:4 bass 
V:1
"^Cornelius Becker\n(1561-1604)""^Psalm 95, SWV 193""^Heinrich Schütz\n(1585-1672)" e4 d4 | %1
w: ~~~Kommt her-|
 c4 f2 e2 | d4 c4 | B4 A4 | d4 d2 e2 | f4 (g2 f2 | e2 d2) e4 |[M:2/2] d2 A2 B2 c2 | d4 c4 | B8 | %10
w: zu, laßt uns|fröh- lich|sein, im|Hort un- sers|Heils jauch\- *|* * zen|fein, das ist des|||
 A4 A4 | B2 d2 B2 A2 | A3 A ^G4 |[M:2/2] B2 c2 d2 dc | B3 B ^G4 | (e2 c2 d2 B2 | c4) A2 c2 | %17
w: le, mit|Dan- ken vor sein|An- ge- sicht|laßt uns kom- men und|schwei- gen nicht,|jauch\- * * *|* zet mit|
 d2 c2 B4 | A8 |] %19
w: Psal- ter- spie-|le.|
V:2
 A4 F4 | A4 A2 A2 | F4 F4 | F4 F4 | F4 F2 A2 | A4 (B2 A2 | G2 F2) A4 |[M:2/2] F2 F2 ^G2 A2 | %8
w: ||||||||
 F4 A2 (A2- | A2 ^GF G4) | A4 F4 | G2 A2 G2 E2 | E3 ^D E4 |[M:2/2] ^G2 A2 B2 BA | F3 F E4 | %15
w: Her- ren Wil\-|||||||
 (^G2 A2 F2 B2 | E4) F2 E2 | F2 A2 ^G4 | A8 |] %19
w: ||||
V:3
 C4 D4 | E4 D2 C2- | C2 B,4 ^A,2 | B,4 C4 | B,4 D2 C2 | D4 (B,2 D2 | B,2 D4) C2 | %7
[M:2/2] D2 C2 E2 E2 | D4 E4 | E8 | E4 D4 | D2 A,2 D2 C2 | A,3 A, B,4 | %13
[M:2/2]"^2. Unser Herr ist ein großer Gott, \nein König, der in Händen hat\ndie Götter all auf Erden. \nEs ist alles in seiner Macht,\nwas jemals der Erdboden bracht \nund was noch drauf soll werden.\n\n3. Die hohe Berg und tiefe Tal, \ndas Meer und alles überall\nzeuget von seiner Stärke. \nSein Macht das Trockne hat bereit,\nder ganz Erdboden weit und breit \nist seiner Hände Werke.\n\n4. Kommt, laßt uns fallen auf die Knie, \nunserm Schöpfer anbeten hie\nmit niedrigen Gebärden, \ner ist unser Gott allezeit,\nund wir sind ein Volk seiner Weid \nund Schafe seiner Herde." E2 E2 G2 GE | %14
 ^D3 D E4 | (B,2 A,2 B,2 ^G,2 | A,4) F,2 A,2 | D2 E2 E4 | E8 |] %19
V:4
 A,4 B,4 | A,4 D,2 A,2 | B,4 F,4 | B,,4 F,4 | B,4 B,2 A,2 | D,4 (G,2 D,2 | G,2 B,2) A,4 | %7
[M:2/2] D,2 F,2 E,2 C,2 | B,,4 C,4 | E,8 | A,4 D,4 | G,2 F,2 G,2 A,2 | F,3 F, E,4 | %13
[M:2/2] E,2 A,2 G,2 G,A, | B,3 B, E,4 | (E,2 F,2 D,2 E,2 | C,4) D,2 C,2 | B,,2 A,,2 E,4 | A,8 |] %19

